X: 1
T: Fj\"alln\"as polska ("Midsommarpolskan")
O: efter Edwin Johnson
S: Edwin Johnson (via Bruce Sagan)
R: hambo, polska
Z: 2021 John Chambers <jc:trillian.mit.edu>
M: 3/4
L: 1/8
K: D
|:\
"D"D2 ~F2 E>F | D2 F<A d2 | "A"{c}e2 e<d c/B/c | "D"d2 f<d A>F ||\
"D"D2 ~F2 E>F | D2 F<A d2 | "A"{c}e2 e<d c/B/c | "D"d2 d4 :|
|:\
"D"A2 F<A d>c | "G"B2 B<A G2 | "A"{c}e2 e<d c/B/c | "D"d2 f<d A>F ||\
"D"A2 F<A d>c | "G"B2 B<A G2 | "A"{c}e2 e<d c/B/c | "D"d2 d4 :|
|:\
"D"f2 f<e d>c | "G"B2 B<A G2 | "A"{c}e2 e<d c>B | "A7"A2 A<G F>E ||\
"D"D2 ~F2 E>F | D2 F<A d2 | "A"{c}e2 e<d c/B/c | "D"d2 d4 :|
%%begintext align
%% This is the tune used for the "l\aangdans" around the midsummer pole
%% at Skandia Folkdance Society's annual Midsommarfest.
%%endtext
